public/images/ai31.svg

<svg width="100" height="100" viewBox="0 0 100 100" fill="none" xmlns="http://www.w3.org/2000/svg">
<path d="M90.606 50.6846C90.5161 50.5046 90.4861 50.4146 90.4261 50.3246C89.197 47.9846 87.9679 45.6446 86.7388 43.3346C86.6189 43.0946 86.6189 42.9746 86.7987 42.7646C88.7473 40.4846 90.696 38.2046 92.6446 35.8946C92.7045 35.8046 92.7645 35.7146 92.7945 35.5946C92.2249 35.7446 91.6553 35.8946 91.0857 36.0446C88.7174 36.6746 86.379 37.3046 84.0107 37.9346C83.8009 37.9946 83.681 37.9346 83.591 37.7546C82.242 35.5046 80.893 33.2846 79.5439 31.0346C79.484 30.9146 79.394 30.7946 79.2441 30.7046C79.1242 31.3046 79.0343 31.9046 78.9144 32.5046C78.5546 34.6046 78.1649 36.7346 77.8052 38.8346C77.7752 39.0746 77.7152 39.2846 77.6852 39.5246C77.6553 39.7346 77.5653 39.8246 77.3555 39.8846C74.5675 40.7546 71.8094 41.6546 69.0214 42.5246C68.9015 42.5546 68.7816 42.6146 68.6617 42.7346L75.5268 45.4646C75.4369 45.5246 75.3769 45.5846 75.3169 45.6146C73.9079 46.5446 72.469 47.4446 71.06 48.3746C70.8801 48.4946 70.7602 48.4946 70.5503 48.4046C68.8416 47.6546 67.1628 46.8746 65.454 46.1246C64.7045 45.7946 64.015 45.3446 63.4754 44.6846C62.2763 43.2146 62.5161 41.5346 64.105 40.4846C64.6446 40.1546 65.2441 39.8846 65.8137 39.7046C68.5418 38.8046 71.2698 37.9646 73.9979 37.0946C74.2377 37.0346 74.3276 36.9146 74.3876 36.6746C74.7473 34.5746 75.1371 32.4446 75.4968 30.3446C75.7067 29.2046 75.7966 28.0646 76.3662 27.0446C76.576 26.6546 76.8159 26.2646 77.1157 25.9346C78.1949 24.7346 79.7238 24.6746 80.863 25.8446C81.2527 26.2346 81.5825 26.6846 81.8822 27.1646C83.1414 29.2346 84.4005 31.3046 85.6296 33.3746C85.7795 33.6146 85.8994 33.6746 86.1692 33.5846C89.227 32.7746 92.2548 31.9646 95.3127 31.1546C95.9422 30.9746 96.5718 30.9146 97.2313 31.0346C98.6403 31.3046 99.2399 32.3546 98.7902 33.7346C98.5803 34.3646 98.1906 34.8746 97.7709 35.3846C95.6424 37.8746 93.5139 40.3946 91.3855 42.8846C91.2056 43.0946 91.2056 43.2446 91.3255 43.4546C92.5846 45.8546 93.8737 48.2546 95.1328 50.6846C95.4326 51.2546 95.6724 51.8546 95.6724 52.5146C95.7024 54.0146 94.5932 55.2446 93.0942 55.4546C92.2548 55.5746 91.4754 55.3946 90.696 55.1546C88.7773 54.5546 86.8587 53.9846 84.9701 53.4146C84.7902 53.3546 84.7302 53.2946 84.7002 53.1146C84.4904 51.7646 84.2506 50.4146 84.0107 49.0646C84.0107 49.0346 84.0107 48.9746 84.0107 48.9146L90.606 50.6846Z" fill="#E25A1C"/>
<path d="M86.8886 70.3046C85.1799 70.3046 83.4411 70.3046 81.7323 70.3046C81.4925 70.3046 81.3726 70.2446 81.2527 70.0346C79.2141 66.9146 77.1756 63.8246 75.1071 60.7046C75.0471 60.6146 74.9871 60.5246 74.8672 60.3446C74.4175 63.7046 73.9978 66.9746 73.5781 70.2746H69.0214C69.0814 69.8246 69.1113 69.4046 69.1713 68.9846C69.621 65.6246 70.0407 62.2646 70.4903 58.8746C70.91 55.6646 71.3298 52.4546 71.7495 49.2146C71.7495 49.1246 71.8394 49.0046 71.8993 48.9446C73.4582 47.9246 75.0171 46.9346 76.576 45.9146C76.606 45.9146 76.636 45.8846 76.6959 45.8846L75.2869 56.6246L75.3469 56.6546L82.7216 48.4646C82.7816 48.8846 82.8415 49.2446 82.9315 49.6046C83.1113 50.6246 83.2612 51.6446 83.4711 52.6646C83.5011 52.8746 83.4411 52.9946 83.3212 53.1446C81.7323 54.7946 80.1734 56.4746 78.5846 58.1246C78.5246 58.1846 78.4647 58.2746 78.3747 58.3646C78.4347 58.4546 78.4647 58.5146 78.5246 58.6046C81.2527 62.4146 83.9507 66.2546 86.6788 70.0646C86.7387 70.1246 86.7987 70.1846 86.8587 70.2446V70.3046M33.4068 60.4046C33.3469 60.0446 33.2869 59.5346 33.137 59.0546C32.3876 56.7146 29.9893 55.4546 27.5011 56.0246C24.803 56.6246 22.8544 58.7846 22.5546 61.5446C22.3448 63.5846 23.454 65.5646 25.4925 66.3146C27.1413 66.9146 28.7302 66.6746 30.2291 65.7746C32.2077 64.6046 33.257 62.8646 33.4068 60.4046ZM21.4754 69.0746C21.3555 70.0646 21.2056 71.0246 21.0856 71.9846C20.9058 73.2446 20.7559 74.5046 20.606 75.7646C20.576 75.9146 20.546 75.9746 20.3961 75.9746C19.167 75.9746 17.9079 75.9746 16.6788 75.9746C16.6488 75.9746 16.6188 75.9446 16.5589 75.9446C16.6488 75.3446 16.7088 74.7446 16.7987 74.1446C17.0685 72.0446 17.3383 69.9746 17.6081 67.8746C17.9379 65.4746 18.1777 63.1046 18.5974 60.7346C19.3169 56.5346 22.8844 52.9046 27.0514 52.0046C29.4797 51.4946 31.788 51.7346 33.9165 53.0846C36.015 54.4346 37.2441 56.4146 37.5139 58.9046C37.9036 62.4146 36.6146 65.3246 34.1263 67.7246C32.4775 69.3146 30.5289 70.3046 28.2805 70.6646C25.9422 71.0246 23.7837 70.6346 21.8051 69.2546C21.6852 69.1946 21.5953 69.1346 21.4754 69.0746ZM19.4668 49.1246L15.3897 52.1546C15.1799 51.8246 14.97 51.4646 14.7602 51.1646C14.1906 50.3546 13.4411 49.7246 12.3919 49.6646C11.5225 49.6046 10.773 49.9046 10.1734 50.5346C9.63383 51.1046 9.57387 51.9446 10.0835 52.6046C10.6231 53.3246 11.2227 54.0146 11.8522 54.6746C12.8715 55.7846 13.9208 56.8346 14.94 57.9446C15.8694 58.9646 16.5889 60.0746 16.8287 61.4546C17.0985 63.1046 16.7687 64.6646 15.9893 66.1046C14.5503 68.7746 12.3019 70.3346 9.30407 70.8146C7.98501 71.0246 6.66595 70.9946 5.37687 70.6046C3.66809 70.0946 2.46895 68.9846 1.71949 67.3946C1.44968 66.8246 1.23983 66.2546 1 65.6546L5.40685 63.2846C5.46681 63.4046 5.49679 63.5246 5.55674 63.6146C5.79657 64.1246 6.00642 64.6646 6.33619 65.1146C7.26552 66.4946 8.73447 66.9146 10.2634 66.2246C10.6531 66.0446 11.0128 65.8046 11.3426 65.5346C12.3319 64.6646 12.5118 63.4646 11.7923 62.3846C11.3726 61.7546 10.863 61.1846 10.3533 60.6446C9.15417 59.2946 7.89507 58.0046 6.72591 56.6546C5.91649 55.7246 5.37687 54.6146 5.197 53.3546C5.01713 51.9746 5.28694 50.6846 6.00642 49.5146C7.77516 46.6346 10.3533 45.1346 13.7709 45.2546C15.7195 45.3146 17.2784 46.2446 18.4775 47.7446C18.7473 48.1646 19.0771 48.6146 19.4668 49.1246ZM52.4732 64.5746C52.2334 66.3146 52.0235 67.9646 51.8137 69.6146C51.8137 69.7046 51.7238 69.8246 51.6638 69.8546C48.3062 71.4146 43.8694 71.2046 41.1113 68.0546C39.6424 66.3746 39.0128 64.3646 39.1028 62.1446C39.3126 56.9846 43.5996 52.4846 48.6959 51.8546C51.6938 51.4946 54.3019 52.3046 56.3105 54.6146C57.6895 56.2046 58.319 58.0946 58.2291 60.1646C58.1692 61.5446 57.9593 62.8946 57.7794 64.2746C57.5396 66.2246 57.2698 68.1446 57.03 70.0946C57.03 70.1546 57 70.2446 57 70.3046H52.9829C53.0428 69.8546 53.0728 69.4346 53.1328 68.9846C53.4325 66.7346 53.7323 64.5146 54.0021 62.2646C54.152 60.8546 54.0621 59.4746 53.4325 58.1846C52.743 56.8046 51.6038 56.0846 50.1049 55.9346C47.0171 55.6046 44.0492 57.7646 43.3897 60.8246C42.94 62.8346 43.6295 64.7546 45.2484 65.8346C46.8073 66.8846 48.4861 66.8846 50.1949 66.1946C51.0343 65.8346 51.7537 65.2946 52.4732 64.5746ZM69.4111 52.2146L68.8715 56.3846C68.0321 56.3846 67.1927 56.3846 66.3533 56.3846C65.6638 56.3846 65.0642 56.8346 64.8544 57.4646C64.7644 57.7046 64.7345 57.9746 64.7045 58.2446C64.2848 61.4546 63.8651 64.6646 63.4454 67.8746C63.3255 68.6846 63.2355 69.4946 63.1156 70.3046H58.9186C59.0086 69.6746 59.0685 69.1046 59.1585 68.5046C59.4283 66.4346 59.6981 64.3646 59.9679 62.2646C60.2077 60.4646 60.4175 58.6646 60.6874 56.8646C61.0771 54.4646 63.4454 52.3346 65.8736 52.2146C67.0428 52.1846 68.212 52.2146 69.4111 52.2146Z" fill="#3C3A3E"/>
<path d="M91.8351 70.3046V68.5346L91.1456 70.3046H90.9058L90.2163 68.5346V70.3046H89.8565V68.1746H90.3962L91.0257 69.7946L91.6553 68.1746H92.1949V70.3046H91.8351ZM88.7473 68.4446V70.2746H88.3876V68.4446H87.7281V68.1746H89.4069V68.4446H88.7473ZM25.0728 46.1246H26.1221L25.8523 44.5646L25.0728 46.1246ZM26.272 47.1446H24.5332L23.9936 48.2246H22.7645L25.4625 43.1846H26.6317L27.561 48.2246H26.4219L26.272 47.1446ZM32.4475 44.2046H31.818L31.6081 45.3746H32.2377C32.5974 45.3746 32.8972 45.1346 32.8972 44.6846C32.8972 44.3546 32.7174 44.2046 32.4475 44.2046ZM30.9486 43.1846H32.5675C33.4069 43.1846 34.0064 43.6946 34.0064 44.5646C34.0064 45.6446 33.227 46.3946 32.1478 46.3946H31.4583L31.1285 48.2546H30.0792L30.9486 43.1846ZM37.5739 46.1246H38.6231L38.3833 44.5646L37.5739 46.1246ZM38.803 47.1446H37.0643L36.5246 48.2246H35.2955L37.9936 43.1846H39.1628L40.0921 48.2246H38.9529L38.803 47.1446ZM45.6081 48.0446C45.2484 48.1946 44.8587 48.3146 44.469 48.3146C43.1199 48.3146 42.3105 47.3246 42.3105 46.0646C42.3105 44.4746 43.6595 43.1246 45.2484 43.1246C45.6381 43.1246 45.9979 43.2146 46.2977 43.3946L46.1478 44.5946C45.9379 44.3546 45.5782 44.1746 45.1285 44.1746C44.1992 44.1746 43.3897 45.0146 43.3897 45.9746C43.3897 46.6946 43.8394 47.2946 44.5889 47.2946C45.0386 47.2946 45.4583 47.1146 45.758 46.8746L45.6081 48.0446ZM52.0535 46.1846H49.8651L49.5054 48.2246H48.4561L49.3555 43.1846H50.4047L50.045 45.1946H52.2334L52.5932 43.1846H53.6424L52.7431 48.2246H51.6938L52.0535 46.1846ZM55.9208 48.2246L56.8201 43.1846H59.6082L59.4283 44.2046H57.6895L57.5097 45.1946H59.0985L58.9186 46.2146H57.3298L57.1499 47.2346H58.8887L58.7088 48.2546H55.9208" fill="#3C3A3E"/>
</svg>

<svg xmlns="http://www.w3.org/2000/svg" width="100" height="100" fill="none"><path fill="#E25A1C" d="M90.606 50.685c-.09-.18-.12-.27-.18-.36-1.229-2.34-2.458-4.68-3.687-6.99-.12-.24-.12-.36.06-.57 1.948-2.28 3.897-4.56 5.846-6.87.06-.09.12-.18.15-.3l-1.71.45c-2.368.63-4.706 1.26-7.074 1.89-.21.06-.33 0-.42-.18-1.349-2.25-2.698-4.47-4.047-6.72a.8.8 0 0 0-.3-.33c-.12.6-.21 1.2-.33 1.8-.36 2.1-.75 4.23-1.109 6.33-.03.24-.09.45-.12.69-.03.21-.12.3-.33.36-2.788.87-5.546 1.77-8.334 2.64-.12.03-.24.09-.36.21l6.866 2.73c-.09.06-.15.12-.21.15-1.41.93-2.848 1.83-4.257 2.76-.18.12-.3.12-.51.03-1.708-.75-3.387-1.53-5.096-2.28-.75-.33-1.439-.78-1.979-1.44-1.199-1.47-.959-3.15.63-4.2.54-.33 1.14-.6 1.709-.78 2.728-.9 5.456-1.74 8.184-2.61.24-.06.33-.18.39-.42.36-2.1.75-4.23 1.109-6.33.21-1.14.3-2.28.87-3.3.209-.39.449-.78.749-1.11 1.079-1.2 2.608-1.26 3.747-.09.39.39.72.84 1.02 1.32a680 680 0 0 1 3.747 6.21c.15.24.27.3.54.21 3.057-.81 6.085-1.62 9.143-2.43.63-.18 1.259-.24 1.918-.12 1.41.27 2.009 1.32 1.56 2.7-.21.63-.6 1.14-1.02 1.65-2.129 2.49-4.257 5.01-6.386 7.5-.18.21-.18.36-.06.57 1.26 2.4 2.549 4.8 3.808 7.23.3.57.54 1.17.54 1.83.03 1.5-1.08 2.73-2.579 2.94-.84.12-1.619-.06-2.398-.3-1.919-.6-3.837-1.17-5.726-1.74-.18-.06-.24-.12-.27-.3-.21-1.35-.45-2.7-.69-4.05v-.15z"/><path fill="#3C3A3E" d="M86.889 70.305h-5.157c-.24 0-.36-.06-.48-.27a1666 1666 0 0 0-6.385-9.69c-.45 3.36-.87 6.63-1.289 9.93h-4.557c.06-.45.09-.87.15-1.29.45-3.36.87-6.72 1.32-10.11.419-3.21.839-6.42 1.258-9.66 0-.09.09-.21.15-.27 1.56-1.02 3.118-2.01 4.677-3.03.03 0 .06-.03.12-.03l-1.41 10.74.06.03 7.376-8.19c.06.42.12.78.21 1.14.18 1.02.33 2.04.54 3.06.03.21-.03.33-.15.48-1.59 1.65-3.149 3.33-4.737 4.98-.06.06-.12.15-.21.24.06.09.09.15.15.24 2.728 3.81 5.426 7.65 8.154 11.46l.18.18v.06m-53.452-9.9c-.06-.36-.12-.87-.27-1.35-.75-2.34-3.148-3.6-5.636-3.03-2.698.6-4.647 2.76-4.946 5.52-.21 2.04.899 4.02 2.938 4.77 1.648.6 3.237.36 4.736-.54 1.979-1.17 3.028-2.91 3.178-5.37m-11.932 8.67c-.12.99-.27 1.95-.39 2.91-.18 1.26-.33 2.52-.479 3.78-.03.15-.06.21-.21.21H16.68c-.03 0-.06-.03-.12-.03.09-.6.15-1.2.24-1.8.27-2.1.54-4.17.81-6.27.329-2.4.569-4.77.988-7.14.72-4.2 4.287-7.83 8.454-8.73 2.429-.51 4.737-.27 6.866 1.08 2.098 1.35 3.327 3.33 3.597 5.82.39 3.51-.9 6.42-3.388 8.82-1.648 1.59-3.597 2.58-5.845 2.94-2.339.36-4.497-.03-6.476-1.41-.12-.06-.21-.12-.33-.18m-2.008-19.95-4.077 3.03c-.21-.33-.42-.69-.63-.99-.57-.81-1.319-1.44-2.368-1.5-.87-.06-1.619.24-2.219.87-.54.57-.6 1.41-.09 2.07.54.72 1.14 1.41 1.77 2.07 1.018 1.11 2.068 2.16 3.087 3.27.93 1.02 1.649 2.13 1.889 3.51.27 1.65-.06 3.21-.84 4.65-1.439 2.67-3.687 4.23-6.685 4.71-1.319.21-2.638.18-3.927-.21-1.709-.51-2.908-1.62-3.658-3.21-.27-.57-.48-1.14-.719-1.74l4.407-2.37c.06.12.09.24.15.33.24.51.45 1.05.78 1.5.929 1.38 2.397 1.8 3.926 1.11.39-.18.75-.42 1.08-.69.989-.87 1.169-2.07.45-3.15-.42-.63-.93-1.2-1.44-1.74-1.199-1.35-2.458-2.64-3.627-3.99a6.34 6.34 0 0 1-1.529-3.3c-.18-1.38.09-2.67.81-3.84 1.768-2.88 4.346-4.38 7.764-4.26 1.948.06 3.507.99 4.706 2.49.27.42.6.87.99 1.38m33.006 15.45c-.24 1.74-.45 3.39-.66 5.04 0 .09-.09.21-.15.24-3.357 1.56-7.794 1.35-10.552-1.8-1.469-1.68-2.098-3.69-2.008-5.91.21-5.16 4.497-9.66 9.593-10.29 2.998-.36 5.606.45 7.615 2.76 1.379 1.59 2.008 3.48 1.918 5.55-.06 1.38-.27 2.73-.45 4.11-.24 1.95-.51 3.87-.749 5.82 0 .06-.03.15-.03.21h-4.017c.06-.45.09-.87.15-1.32.3-2.25.6-4.47.87-6.72.149-1.41.06-2.79-.57-4.08-.69-1.38-1.83-2.1-3.328-2.25-3.088-.33-6.056 1.83-6.715 4.89-.45 2.01.24 3.93 1.858 5.01 1.56 1.05 3.238 1.05 4.947.36.84-.36 1.559-.9 2.278-1.62m16.938-12.36-.54 4.17h-2.518c-.69 0-1.289.45-1.499 1.08-.09.24-.12.51-.15.78l-1.259 9.63c-.12.81-.21 1.62-.33 2.43H58.92c.09-.63.15-1.2.24-1.8.27-2.07.54-4.14.809-6.24.24-1.8.45-3.6.72-5.4.39-2.4 2.757-4.53 5.186-4.65 1.169-.03 2.338 0 3.537 0M91.835 70.305v-1.77l-.69 1.77h-.24l-.689-1.77v1.77h-.36v-2.13h.54l.63 1.62.63-1.62h.539v2.13zm-3.088-1.86v1.83h-.36v-1.83h-.659v-.27h1.679v.27zm-63.674-22.32h1.05l-.27-1.56zm1.199 1.02h-1.739l-.54 1.08h-1.228l2.697-5.04h1.17l.929 5.04h-1.14zm6.176-2.94h-.63l-.21 1.17h.63c.36 0 .66-.24.66-.69 0-.33-.18-.48-.45-.48m-1.5-1.02h1.62c.839 0 1.438.51 1.438 1.38 0 1.08-.779 1.83-1.858 1.83h-.69l-.33 1.86H30.08zm6.626 2.94h1.05l-.24-1.56zm1.229 1.02h-1.739l-.54 1.08h-1.229l2.699-5.04h1.169l.93 5.04h-1.14zm6.805.9c-.36.15-.75.27-1.139.27-1.35 0-2.159-.99-2.159-2.25 0-1.59 1.35-2.94 2.938-2.94.39 0 .75.09 1.05.27l-.15 1.2c-.21-.24-.57-.42-1.02-.42-.929 0-1.738.84-1.738 1.8 0 .72.45 1.32 1.199 1.32.45 0 .87-.18 1.169-.42zm6.446-1.86h-2.189l-.36 2.04h-1.049l.9-5.04h1.049l-.36 2.01h2.188l.36-2.01h1.05l-.9 5.04h-1.05zm3.867 2.04.9-5.04h2.787l-.18 1.02H57.69l-.18.99h1.589l-.18 1.02h-1.59l-.18 1.02h1.74l-.18 1.02H55.92"/></svg>
